X:1
T:Title
%%score { 1 | ( 2 3 ) }
L:1/8
M:6/8
K:D
V:1 treble nm="Grand Piano"
V:2 bass 
V:3 bass 
V:1
 z3 z2[Q:1/4=100] [FA]/[EG]/ | F2 F G2 E | A3 D2 E | F2 [DA] [CF]2 [CE] | D3- D2 F/G/ | %5
 [DFA]2 [A,FA] [=FB]2 [Fc] | [FA]3 [FB]2 [FB] | [Ec]2 [Ae] [Gc]2 [GB] | A3- A2 A | %9
 [EG]2 [DF] [CE]2 [GB] | [FA]3 [DF]2 [FA] | [EG]2 [DF] [CE]2 [CGB] |[M:5/8] [DFA]-[DFA]- [DFA]3 | %13
[M:1/8] [CGA] |[M:3/4] [DAd]2 [A,DF] [A,CG]2 [A,DA] | [DAc]3 [DGB]2 [B,EG] | %16
 [A,DF]2 [DA] [A,CF]2[K:bass] [G,CE] |[M:5/8] [F,D]-[F,D]- [F,D]3 |[M:1/8][K:treble] [DFA] | %19
[M:3/4] [FB]2 [FA] [FB]2 [Fd] | [Gd]3 c2 B | A2 c B2 A |[M:5/8] [FA]-[FA]- [FA]3 |[M:1/8] [GA] | %24
[M:3/4] [Ad]2 F G2 A | c3 B2 G | [DF]2 [DA] [CF]2 [CE] |[M:13/8] D-D- D3 z z z z z z z2 |] %28
V:2
 z3 z2 [D,A,]/[D,A,]/ | [D,A,D]2 [D,A,D] [E,A,C]2 [G,A,C] | [F,A,D]3 [G,B,]2 [^G,B,D] | %3
 [A,D]2 [A,,F,] [A,,A,]2 [A,,G,] | z3 z2 .D | D,2 D, [D,^G,]2 [D,G,] | [D,A,]3 [D,D]2 [D,D] | %7
 [E,A,]2 [E,C] [E,E]2 [E,D] | [A,CE]3- [A,CE]2 [A,F] | [A,,A,]2 [A,,A,] [A,,A,]2 [A,C] | %10
 [D,D]3 [D,A,]2 [D,D] | [A,,A,]2 [A,,A,] [A,,A,]2 A, |[M:5/8] D,-D,- D,3 |[M:1/8] E, | %14
[M:3/4] F,2 D, E,2 F, | G,3 G,2 E, | A,,2 [A,,F,] A,,2 A,, |[M:5/8] D,-D,- D,3 |[M:1/8] D, | %19
[M:3/4] [D,A,]2 [D,D] [D,A,]2 [D,D] | [E,E]3[K:treble] [A,EG]2 [A,DG] | %21
 [A,CG]2 [A,EG] [A,DG]2 [A,CG] |[M:5/8][K:bass] [D,D]-[D,D]- [D,D]3 |[M:1/8] [E,C] | %24
[M:3/4] [F,D]2 [D,A,D] [E,A,C]2 [F,A,D] | [G,DA]3 [G,DG]2[K:bass] [E,B,E] | %26
 [A,,A,]2 [A,,F,] [A,,A,]2 [A,,G,] |[M:13/8] [D,F,]-[D,F,]- [D,F,]3 z z z z z z z2 |] %28
V:3
 x6 | x6 | x6 | x6 | [D,F,]3- [D,F,]2 [D,A,]/-[D,A,E]/ | x6 | x6 | x6 | x6 | x6 | x6 | x6 | %12
[M:5/8] x5 |[M:1/8] x |[M:3/4] x6 | x6 | x6 |[M:5/8] x5 |[M:1/8] x |[M:3/4] x6 | x3[K:treble] x3 | %21
 x6 |[M:5/8][K:bass] x5 |[M:1/8] x |[M:3/4] x6 | x5[K:bass] x | x6 |[M:13/8] x13 |] %28

